!!!SOCIAL_FUNCTION: tick dance songs
!!!PDT:	1943
!!!LING_GROUP: Muskogean
!!!LANG: Non-Tone
Specific Region: Oklahoma, California, Mississippi, Louisiana, Texas, Alabama
!!!REG: Southeast
!!!COM: Anon.
!!!OTL: Tick Dance Song (h)
!!!ODT: <1933//
!!!MPN: Lysander Tubby and Gus Willis
!!!MLC: Philadelphia, Mississippi, United States of America
!! Song was recorded in January 1933.
!!!AGN: monody
!!!AMT: simple duple
!!!RWG: Transcribed pitches, durations, and meters are only approximate.
**kern
*ICvox
*Imale
*clefF4
*k[b-]
*M2/4
*MM100
=1-
8F
8F
4F
=2
8F
8F
4G
=3
4A
8A~
8A~
=4
4G#
4r
=5
8F
8F
4F
=6
8C
8C
4F
=7
(2D
=8
4C)
4r
=9
8F
8F
4F
=10
8F
8F
4G
=11
4A
8A~
8A~
=12
4G#
4r
=13
8F
8F
4F
=14
8C
8C
4F
=15
(2D
=16
4C)
4r
=17
16F
8.F
4F
=18
16F
8.F
4G
=19
4A
4A
=20
4G
8F
8D
=21
(2F
=22
8C)
8C
4F
=23
(2D
=24
4C)
4r
=25
4F
8.F
16G
=26
2G
=27
4A
4A
=28
4G
(8F
16D)
=29
2F
=30
16C
8.C
4F
=31
(2D
=32
4C)
4r
==
*-
!!!CNT: Choctaw
!!!TXO: Choctaw
!!!OCY: United States
!!!OCL: Frances Densmore
!!!YOR: Frances Densmore, "Choctaw Music"
!!!YOR: Bulletin 136, page 141, No. 17
!!!PPR: Smithsonian Institution, Bureau of American Ethnology
!!!PPR: Government Printing Office
!!!PDT: 1943
!!!PPP: Washington, DC, United States of America
!!!YEC: Electronic Copyright 2000 David Huron
!!!YER: August 2000
!!!YEN: United States of America
!!!ENC: David Huron
!!!RDT: August 27, 2000
!!!EEV: Release 1.0
!!!AIN: vox
